(QUAD)
(T11  D=2 CR=0 - ZMIN=-1.45 - FLAT END MILL)
G90 G94 G91.1 G40 G49 G17
G21

(DRILL1)
M5
M9
T11 M6
(DIAMOND OR SPIRAL)
S16000 M3
G54
M8
G0 X27.095 Y160.414
G43 Z15 H1
Z5
G98 G81 X27.095 Y160.414 Z-1.45 R3.8 F60
X40.47 Y181.164
X53.845 Y160.414
X49.445 Y62.82
X62.82 Y83.57
X76.195 Y62.82
G80
Z15

(2D CONTOUR1)
M8
G0 X68.231 Y111.994
Z15
Z5
G1 Z1 F60
Z-1
X68.237 Y111.99 Z-1.052
X68.253 Y111.979 Z-1.1
X68.28 Y111.962 Z-1.141
X68.314 Y111.939 Z-1.173
X68.354 Y111.912 Z-1.193
X68.397 Y111.883 Z-1.2
X68.564 Y111.772 F120
G3 X68.841 Y111.828 I0.111 J0.166
G2 X120.438 Y77.451 I25.798 J-17.188 F240
X84.036 Y65.509 I-25.798 J17.188
G3 X82.078 Y60.13 I-0.979 J-2.69
X84.036 I0.979 J2.69
G2 X105.243 Y1.87 I10.603 J-29.13
X64.131 Y36.5 I-10.603 J29.13
G3 X61.508 Y36.974 I-1.312 J0.237
Y36.5 I1.312 J-0.237
G2 X0.492 Y25.5 I-30.508 J-5.5
X41.603 Y60.13 I30.508 J5.5
G3 X43.562 Y65.509 I0.979 J2.69
X41.603 I-0.979 J-2.69
G2 X30.968 Y63.639 I-10.604 J29.13
X7.291 Y114.611 I0.032 J31
X61.508 Y89.139 I23.709 J-19.972
G3 X64.131 Y88.666 I1.312 J-0.237
Y89.139 I-1.312 J0.237
G2 X68.841 Y111.828 I30.508 J5.5
G3 X68.786 Y112.105 I-0.166 J0.111 F480
G1 X68.619 Y112.216
X68.576 Y112.245 Z-1.193
X68.536 Y112.272 Z-1.173
X68.501 Y112.295 Z-1.141
X68.475 Y112.312 Z-1.1
X68.458 Y112.323 Z-1.052
X68.453 Y112.327 Z-1
G0 Z5
X121.04 Y94.446
G1 Z1 F60
Z-1
X121.047 Z-1.052
X121.067 Z-1.1
X121.099 Z-1.141
X121.14 Z-1.173
X121.188 Z-1.193
X121.24 Z-1.2
X121.44 F120
G3 X121.64 Y94.646 I0 J0.2
X67.639 Y94.633 I-27 J-0.007 F240
X121.64 Y94.646 I27 J0.007
X121.44 Y94.846 I-0.2 J0 F480
G1 X121.24
X121.188 Z-1.193
X121.14 Z-1.173
X121.099 Z-1.141
X121.067 Z-1.1
X121.047 Z-1.052
X121.04 Z-1
G0 Z5
Y30.809
G1 Z1 F60
Z-1
X121.046 Z-1.052
X121.066 Z-1.1
X121.098 Z-1.141
X121.14 Z-1.173
X121.188 Z-1.193
X121.24 Z-1.2
X121.44 F120
G3 X121.64 Y31.009 I0 J0.2
X67.64 Y30.991 I-27 J-0.009 F240
X121.64 Y31.009 I27 J0.009
X121.44 Y31.209 I-0.2 J0 F480
G1 X121.24
X121.188 Z-1.193
X121.14 Z-1.173
X121.098 Z-1.141
X121.066 Z-1.1
X121.046 Z-1.052
X121.04 Z-1
G0 Z5
X71.591 Y62.522
G1 Z1 F60
Z-1
X71.598 Z-1.052
X71.618 Z-1.1
X71.65 Y62.521 Z-1.141
X71.691 Z-1.173
X71.74 Y62.52 Z-1.193
X71.791 Z-1.2
X71.991 Y62.517 F120
G3 X72.194 Y62.715 I0.002 J0.2
G1 X72.195 Y62.82 F240
X72.183 Y63.84
X72.158 Y64.866
X72.121 Y65.883
X72.068 Y66.886
X72 Y67.872
X71.933 Y68.629
X71.855 Y69.37
X71.764 Y70.091
X71.661 Y70.792
X71.543 Y71.468
X71.411 Y72.118
X71.264 Y72.739
X71.102 Y73.329
X70.925 Y73.884
X70.73 Y74.407
X70.598 Y74.721
X70.457 Y75.022
X70.311 Y75.304
X70.159 Y75.568
X69.999 Y75.815
X69.814 Y76.073
G3 X55.825 I-6.995 J-5.248
G1 X55.656 Y75.838
X55.51 Y75.615
X55.371 Y75.38
X55.236 Y75.129
X55.106 Y74.863
X54.984 Y74.586
X54.796 Y74.112
X54.624 Y73.61
X54.466 Y73.077
X54.31 Y72.473
X54.17 Y71.839
X54.044 Y71.177
X53.932 Y70.49
X53.834 Y69.781
X53.728 Y68.845
X53.641 Y67.881
X53.572 Y66.895
X53.519 Y65.889
X53.481 Y64.87
X53.456 Y63.843
X53.445 Y62.82
X53.456 Y61.799
X53.481 Y60.774
X53.519 Y59.757
X53.571 Y58.754
X53.64 Y57.768
X53.706 Y57.011
X53.784 Y56.27
X53.875 Y55.548
X53.979 Y54.848
X54.097 Y54.171
X54.229 Y53.521
X54.376 Y52.9
X54.538 Y52.311
X54.715 Y51.756
X54.909 Y51.233
X55.042 Y50.919
X55.182 Y50.618
X55.329 Y50.336
X55.481 Y50.072
X55.64 Y49.825
X55.825 Y49.566
G3 X69.815 Y49.567 I6.995 J5.248
G1 X69.984 Y49.802
X70.13 Y50.025
X70.269 Y50.26
X70.404 Y50.511
X70.533 Y50.777
X70.656 Y51.053
X70.843 Y51.527
X71.015 Y52.03
X71.174 Y52.563
X71.33 Y53.167
X71.47 Y53.801
X71.596 Y54.463
X71.707 Y55.15
X71.805 Y55.858
X71.912 Y56.795
X71.999 Y57.758
X72.068 Y58.745
X72.12 Y59.75
X72.158 Y60.769
X72.183 Y61.797
X72.194 Y62.715
G3 X71.996 Y62.917 I-0.2 J0.002 F480
G1 X71.796 Y62.92
X71.744 Z-1.193
X71.696 Y62.921 Z-1.173
X71.654 Z-1.141
X71.623 Y62.922 Z-1.1
X71.603 Z-1.052
X71.596 Z-1
G0 Z5
X57.4 Y94.451
G1 Z1 F60
Z-1
X57.407 Z-1.052
X57.427 Z-1.1
X57.459 Z-1.141
X57.5 Z-1.173
X57.549 Z-1.193
X57.6 Z-1.2
X57.8 Y94.452 F120
G3 X58 Y94.652 I0 J0.2
X4 Y94.628 I-27 J-0.012 F240
X58 Y94.652 I27 J0.012
X57.8 Y94.852 I-0.2 J0 F480
G1 X57.6 Y94.851
X57.549 Z-1.193
X57.5 Z-1.173
X57.459 Z-1.141
X57.427 Z-1.1
X57.407 Z-1.052
X57.4 Z-1
G0 Z5
X60.777 Y129.23
G1 Z1 F60
Z-1
X60.78 Y129.236 Z-1.052
X60.791 Y129.253 Z-1.1
X60.808 Y129.28 Z-1.141
X60.83 Y129.315 Z-1.173
X60.856 Y129.356 Z-1.193
X60.883 Y129.399 Z-1.2
X60.99 Y129.569 F120
G3 X60.927 Y129.844 I-0.169 J0.107
G1 X44.554 Y140.164 F240
X36.386
X17.287 Y128.127
G2 X0.013 Y129.06 I-8.637 J0.467
X11.956 Y136.587 I8.637 J-0.467
G1 X27.595 Y146.444
Y156.949
G2 X23.595 Y160.413 I-0.5 J3.464
X27.595 Y163.878 I3.5 J0
G1 Y174.384
X11.956 Y184.24
G2 X5.344 Y200.227 I-3.306 J7.994
X17.287 Y192.7 I3.306 J-7.994
G1 X36.386 Y180.664
X37.006
G2 X40.47 Y184.664 I3.464 J0.5
X43.934 Y180.664 I0 J-3.5
G1 X44.554
X63.652 Y192.7
G2 X80.928 Y191.767 I8.638 J-0.466
X68.984 Y184.24 I-8.638 J0.466
G1 X53.345 Y174.384
Y163.878
G2 X57.345 Y160.413 I0.5 J-3.464
X53.345 Y156.949 I-3.5 J0
G1 Y146.444
X68.984 Y136.587
G2 X75.595 Y120.6 I3.306 J-7.993
X63.652 Y128.127 I-3.306 J7.993
G1 X60.927 Y129.844
G3 X60.652 Y129.782 I-0.107 J-0.169 F480
G1 X60.545 Y129.613
X60.517 Y129.569 Z-1.193
X60.492 Y129.528 Z-1.173
X60.469 Y129.493 Z-1.141
X60.453 Y129.466 Z-1.1
X60.442 Y129.449 Z-1.052
X60.438 Y129.443 Z-1
G0 Z5
X75.814 Y128.382
G1 Z1 F60
Z-1
X75.821 Z-1.052
X75.841 Z-1.1
X75.873 Z-1.141
X75.914 Z-1.173
X75.963 Z-1.193
X76.014 Y128.381 Z-1.2
X76.214 F120
G3 X76.415 Y128.58 I0.001 J0.2
X69.986 Y132.017 I-4.125 J0.014 F240
G2 X67.803 Y131.983 I-1.118 J1.658
G1 X49.753 Y143.358
G2 X48.82 Y145.05 I1.066 J1.692
G1 Y158.151
X42.732
Y145.148
X44.554
G2 X45.62 Y144.84 I0 J-2
G1 X67.296 Y131.179
G2 X68.209 Y129.195 I-1.066 J-1.692
G3 X71.982 Y124.481 I4.081 J-0.601
X76.415 Y128.58 I0.308 J4.114
X76.216 Y128.781 I-0.2 J0.001 F480
G1 X76.016
X75.964 Y128.782 Z-1.193
X75.916 Z-1.173
X75.874 Z-1.141
X75.843 Z-1.1
X75.823 Z-1.052
X75.816 Z-1
G0 Z5
X37.607 Y154.907
G1 Z1 F60
Z-1
X37.614 Z-1.052
X37.634 Z-1.1
X37.666 Z-1.141
X37.707 Z-1.173
X37.756 Z-1.193
X37.807 Z-1.2
X38.007 F120
G3 X38.207 Y155.107 I0 J0.2
G1 Y158.151 F240
X32.12
Y145.05
G2 X31.186 Y143.358 I-2 J0
G1 X13.137 Y131.983
G2 X10.953 Y132.017 I-1.066 J1.692
G3 X6.346 Y125.172 I-2.304 J-3.422
X12.731 Y129.195 I2.304 J3.422
G2 X13.643 Y131.179 I1.979 J0.292
G1 X35.32 Y144.84
G2 X36.386 Y145.148 I1.066 J-1.692
G1 X38.207
Y155.107
G3 X38.007 Y155.307 I-0.2 J0 F480
G1 X37.807
X37.756 Z-1.193
X37.707 Z-1.173
X37.666 Z-1.141
X37.634 Z-1.1
X37.614 Z-1.052
X37.607 Z-1
G0 Z5
X12.179 Y192.12
G1 Z1 F60
Z-1
X12.186 Z-1.052
X12.206 Y192.121 Z-1.1
X12.237 Y192.122 Z-1.141
X12.279 Y192.123 Z-1.173
X12.327 Y192.124 Z-1.193
X12.379 Y192.125 Z-1.2
X12.579 Y192.13 F120
G3 X12.774 Y192.335 I-0.005 J0.2
X4.526 Y192.132 I-4.124 J-0.101 F240
X10.953 Y188.811 I4.124 J0.101
G2 X13.136 Y188.845 I1.118 J-1.658
G1 X31.186 Y177.469
G2 X32.12 Y175.777 I-1.066 J-1.692
G1 Y162.676
X38.207
Y175.679
X36.386
G2 X35.32 Y175.987 I0 J2
G1 X13.643 Y189.648
G2 X12.731 Y191.632 I1.066 J1.692
G3 X12.774 Y192.335 I-4.081 J0.602
X12.569 Y192.53 I-0.2 J-0.005 F480
G1 X12.369 Y192.525
X12.317 Y192.524 Z-1.193
X12.269 Y192.523 Z-1.173
X12.228 Y192.522 Z-1.141
X12.196 Y192.521 Z-1.1
X12.176 Y192.52 Z-1.052
X12.169 Z-1
G0 Z5
X48.22 Y165.52
G1 Z1 F60
Z-1
X48.227 Z-1.052
X48.247 Z-1.1
X48.278 Z-1.141
X48.32 Z-1.173
X48.368 Z-1.193
X48.42 Z-1.2
X48.62 F120
G3 X48.82 Y165.72 I0 J0.2
G1 Y175.777 F240
G2 X49.753 Y177.469 I2 J0
G1 X67.803 Y188.845
G2 X69.986 Y188.811 I1.066 J-1.692
G3 X74.593 Y195.656 I2.303 J3.422
X68.209 Y191.632 I-2.303 J-3.422
G2 X67.296 Y189.648 I-1.979 J-0.292
G1 X45.62 Y175.987
G2 X44.554 Y175.679 I-1.066 J1.692
G1 X42.732
Y162.676
X48.82
Y165.72
G3 X48.62 Y165.92 I-0.2 J0 F480
G1 X48.42
X48.368 Z-1.193
X48.32 Z-1.173
X48.278 Z-1.141
X48.247 Z-1.1
X48.227 Z-1.052
X48.22 Z-1
G0 Z5
X57.4 Y30.801
G1 Z1 F60
Z-1
X57.407 Z-1.052
X57.427 Z-1.1
X57.459 Z-1.141
X57.5 Z-1.173
X57.548 Z-1.193
X57.6 Z-1.2
X57.8 F120
G3 X58 Y31.001 I0 J0.2
X4 Y30.999 I-27 J-0.001 F240
X58 Y31.001 I27 J0.001
X57.8 Y31.201 I-0.2 J0 F480
G1 X57.6
X57.548 Z-1.193
X57.5 Z-1.173
X57.459 Z-1.141
X57.427 Z-1.1
X57.407 Z-1.052
X57.4 Z-1
G0 Z15

M9
M30
