(QUAD)
(T11  D=2 CR=0 - ZMIN=-1.45 - FLAT END MILL)
G90 G94 G91.1 G40 G49 G17
G21

(DRILL1)
M5
M9
T11 M6
(DIAMOND OR SPIRAL)
S16000 M3
G54
M8
G0 X49.445 Y62.82
G43 Z15 H1
Z5
G98 G81 X49.445 Y62.82 Z-1.45 R3.8 F60
X62.82 Y83.57
X76.195 Y62.82
G80
Z15

(2D CONTOUR1)
M8
G0 X71.591 Y62.522
Z15
Z5
G1 Z1.7 F60
Z-0.5
X71.598 Z-0.552
X71.618 Z-0.6
X71.65 Y62.521 Z-0.641
X71.691 Z-0.673
X71.74 Y62.52 Z-0.693
X71.791 Z-0.7
X71.991 Y62.517 F120
G3 X72.194 Y62.715 I0.002 J0.2
G1 X72.195 Y62.82 F240
X72.183 Y63.84
X72.158 Y64.866
X72.121 Y65.883
X72.068 Y66.886
X72 Y67.872
X71.933 Y68.629
X71.855 Y69.37
X71.764 Y70.091
X71.661 Y70.792
X71.543 Y71.468
X71.411 Y72.118
X71.264 Y72.739
X71.102 Y73.329
X70.925 Y73.884
X70.73 Y74.407
X70.598 Y74.721
X70.457 Y75.022
X70.311 Y75.304
X70.159 Y75.568
X69.999 Y75.815
X69.814 Y76.073
G3 X55.825 I-6.995 J-5.248
G1 X55.656 Y75.838
X55.51 Y75.615
X55.371 Y75.38
X55.236 Y75.129
X55.106 Y74.863
X54.984 Y74.586
X54.796 Y74.112
X54.624 Y73.61
X54.466 Y73.077
X54.31 Y72.473
X54.17 Y71.839
X54.044 Y71.177
X53.932 Y70.49
X53.834 Y69.781
X53.728 Y68.845
X53.641 Y67.881
X53.572 Y66.895
X53.519 Y65.889
X53.481 Y64.87
X53.456 Y63.843
X53.445 Y62.82
X53.456 Y61.799
X53.481 Y60.774
X53.519 Y59.757
X53.571 Y58.754
X53.64 Y57.768
X53.706 Y57.011
X53.784 Y56.27
X53.875 Y55.548
X53.979 Y54.848
X54.097 Y54.171
X54.229 Y53.521
X54.376 Y52.9
X54.538 Y52.311
X54.715 Y51.756
X54.909 Y51.233
X55.042 Y50.919
X55.182 Y50.618
X55.329 Y50.336
X55.481 Y50.072
X55.64 Y49.825
X55.825 Y49.566
G3 X69.815 Y49.567 I6.995 J5.248
G1 X69.984 Y49.802
X70.13 Y50.025
X70.269 Y50.26
X70.404 Y50.511
X70.533 Y50.777
X70.656 Y51.053
X70.843 Y51.527
X71.015 Y52.03
X71.174 Y52.563
X71.33 Y53.167
X71.47 Y53.801
X71.596 Y54.463
X71.707 Y55.15
X71.805 Y55.858
X71.912 Y56.795
X71.999 Y57.758
X72.068 Y58.745
X72.12 Y59.75
X72.158 Y60.769
X72.183 Y61.797
X72.194 Y62.715
G3 X71.996 Y62.917 I-0.2 J0.002 F480
G1 X71.796 Y62.92
X71.744 Z-0.693
X71.696 Y62.921 Z-0.673
X71.654 Z-0.641
X71.623 Y62.922 Z-0.6
X71.603 Z-0.552
X71.596 Z-0.5
X71.591 Y62.522
Z-1.2 F60
X71.598 Z-1.252
X71.618 Z-1.3
X71.65 Y62.521 Z-1.341
X71.691 Z-1.373
X71.74 Y62.52 Z-1.393
X71.791 Z-1.4
X71.991 Y62.517 F120
G3 X72.194 Y62.715 I0.002 J0.2
G1 X72.195 Y62.82 F240
X72.183 Y63.84
X72.158 Y64.866
X72.121 Y65.883
X72.068 Y66.886
X72 Y67.872
X71.933 Y68.629
X71.855 Y69.37
X71.764 Y70.091
X71.661 Y70.792
X71.543 Y71.468
X71.411 Y72.118
X71.264 Y72.739
X71.102 Y73.329
X70.925 Y73.884
X70.73 Y74.407
X70.598 Y74.721
X70.457 Y75.022
X70.311 Y75.304
X70.159 Y75.568
X69.999 Y75.815
X69.814 Y76.073
G3 X55.825 I-6.995 J-5.248
G1 X55.656 Y75.838
X55.51 Y75.615
X55.371 Y75.38
X55.236 Y75.129
X55.106 Y74.863
X54.984 Y74.586
X54.796 Y74.112
X54.624 Y73.61
X54.466 Y73.077
X54.31 Y72.473
X54.17 Y71.839
X54.044 Y71.177
X53.932 Y70.49
X53.834 Y69.781
X53.728 Y68.845
X53.641 Y67.881
X53.572 Y66.895
X53.519 Y65.889
X53.481 Y64.87
X53.456 Y63.843
X53.445 Y62.82
X53.456 Y61.799
X53.481 Y60.774
X53.519 Y59.757
X53.571 Y58.754
X53.64 Y57.768
X53.706 Y57.011
X53.784 Y56.27
X53.875 Y55.548
X53.979 Y54.848
X54.097 Y54.171
X54.229 Y53.521
X54.376 Y52.9
X54.538 Y52.311
X54.715 Y51.756
X54.909 Y51.233
X55.042 Y50.919
X55.182 Y50.618
X55.329 Y50.336
X55.481 Y50.072
X55.64 Y49.825
X55.825 Y49.566
G3 X69.815 Y49.567 I6.995 J5.248
G1 X69.984 Y49.802
X70.13 Y50.025
X70.269 Y50.26
X70.404 Y50.511
X70.533 Y50.777
X70.656 Y51.053
X70.843 Y51.527
X71.015 Y52.03
X71.174 Y52.563
X71.33 Y53.167
X71.47 Y53.801
X71.596 Y54.463
X71.707 Y55.15
X71.805 Y55.858
X71.912 Y56.795
X71.999 Y57.758
X72.068 Y58.745
X72.12 Y59.75
X72.158 Y60.769
X72.183 Y61.797
X72.194 Y62.715
G3 X71.996 Y62.917 I-0.2 J0.002 F480
G1 X71.796 Y62.92
X71.744 Z-1.393
X71.696 Y62.921 Z-1.373
X71.654 Z-1.341
X71.623 Y62.922 Z-1.3
X71.603 Z-1.252
X71.596 Z-1.2
G0 Z5
X125.965 Y90.479
G1 Z1.7 F60
Z-0.5
X125.958 Y90.48 Z-0.552
X125.939 Y90.482 Z-0.6
X125.907 Y90.487 Z-0.641
X125.866 Y90.493 Z-0.673
X125.818 Y90.499 Z-0.693
X125.767 Y90.506 Z-0.7
X125.569 Y90.534 F120
G3 X125.343 Y90.363 I-0.028 J-0.198
G2 X84.036 Y65.509 I-30.704 J4.276 F240
G3 X82.078 Y60.13 I-0.979 J-2.69
X84.036 I0.979 J2.69
G2 X105.243 Y1.87 I10.603 J-29.13
X64.131 Y36.5 I-10.603 J29.13
G3 X61.508 Y36.974 I-1.312 J0.237
Y36.5 I1.312 J-0.237
G2 X7.291 Y11.028 I-30.508 J-5.5
X31.057 Y62 I23.709 J19.972
X41.603 Y60.13 I-0.058 J-31
G3 X43.562 Y65.509 I0.979 J2.69
X41.603 I-0.979 J-2.69
G2 X20.397 Y123.77 I-10.603 J29.13
X61.508 Y89.139 I10.603 J-29.13
G3 X64.131 Y88.666 I1.312 J-0.237
Y89.139 I-1.312 J0.237
G2 X125.148 Y100.14 I30.508 J5.5
X125.343 Y90.363 I-30.508 J-5.5
G3 X125.514 Y90.138 I0.198 J-0.028 F480
G1 X125.712 Y90.11
X125.763 Y90.103 Z-0.693
X125.811 Y90.096 Z-0.673
X125.852 Y90.091 Z-0.641
X125.883 Y90.086 Z-0.6
X125.903 Y90.084 Z-0.552
X125.91 Y90.083 Z-0.5
X125.965 Y90.479
Z-1.2 F60
X125.958 Y90.48 Z-1.252
X125.939 Y90.482 Z-1.3
X125.907 Y90.487 Z-1.341
X125.866 Y90.493 Z-1.373
X125.818 Y90.499 Z-1.393
X125.767 Y90.506 Z-1.4
X125.569 Y90.534 F120
G3 X125.343 Y90.363 I-0.028 J-0.198
G2 X84.036 Y65.509 I-30.704 J4.276 F240
G3 X82.078 Y60.13 I-0.979 J-2.69
X84.036 I0.979 J2.69
G2 X105.243 Y1.87 I10.603 J-29.13
X64.131 Y36.5 I-10.603 J29.13
G3 X61.508 Y36.974 I-1.312 J0.237
Y36.5 I1.312 J-0.237
G2 X7.291 Y11.028 I-30.508 J-5.5
X31.057 Y62 I23.709 J19.972
X41.603 Y60.13 I-0.058 J-31
G3 X43.562 Y65.509 I0.979 J2.69
X41.603 I-0.979 J-2.69
G2 X20.397 Y123.77 I-10.603 J29.13
X61.508 Y89.139 I10.603 J-29.13
G3 X64.131 Y88.666 I1.312 J-0.237
Y89.139 I-1.312 J0.237
G2 X125.148 Y100.14 I30.508 J5.5
X125.343 Y90.363 I-30.508 J-5.5
G3 X125.514 Y90.138 I0.198 J-0.028 F480
G1 X125.712 Y90.11
X125.763 Y90.103 Z-1.393
X125.811 Y90.096 Z-1.373
X125.852 Y90.091 Z-1.341
X125.883 Y90.086 Z-1.3
X125.903 Y90.084 Z-1.252
X125.91 Y90.083 Z-1.2
G0 Z5
X115.64 Y78.639
G1 Z1.7 F60
Z-0.5
X115.645 Y78.635 Z-0.552
X115.661 Y78.623 Z-0.6
X115.687 Y78.604 Z-0.641
X115.72 Y78.579 Z-0.673
X115.759 Y78.55 Z-0.693
X115.8 Y78.519 Z-0.7
X115.96 Y78.399 F120
G3 X116.24 Y78.439 I0.12 J0.16
X73.039 Y110.84 I-21.6 J16.2 F240
X116.24 Y78.439 I21.6 J-16.2
X116.2 Y78.719 I-0.16 J0.12 F480
G1 X116.04 Y78.839
X115.999 Y78.87 Z-0.693
X115.96 Y78.899 Z-0.673
X115.927 Y78.924 Z-0.641
X115.901 Y78.943 Z-0.6
X115.885 Y78.955 Z-0.552
X115.88 Y78.959 Z-0.5
X115.64 Y78.639
Z-1.2 F60
X115.645 Y78.635 Z-1.252
X115.661 Y78.623 Z-1.3
X115.687 Y78.604 Z-1.341
X115.72 Y78.579 Z-1.373
X115.759 Y78.55 Z-1.393
X115.8 Y78.519 Z-1.4
X115.96 Y78.399 F120
G3 X116.24 Y78.439 I0.12 J0.16
X73.039 Y110.84 I-21.6 J16.2 F240
X116.24 Y78.439 I21.6 J-16.2
X116.2 Y78.719 I-0.16 J0.12 F480
G1 X116.04 Y78.839
X115.999 Y78.87 Z-1.393
X115.96 Y78.899 Z-1.373
X115.927 Y78.924 Z-1.341
X115.901 Y78.943 Z-1.3
X115.885 Y78.955 Z-1.252
X115.88 Y78.959 Z-1.2
G0 Z5
X116.026 Y15.52
G1 Z1.7 F60
Z-0.5
X116.031 Y15.516 Z-0.552
X116.048 Y15.505 Z-0.6
X116.074 Y15.486 Z-0.641
X116.107 Y15.462 Z-0.673
X116.147 Y15.434 Z-0.693
X116.189 Y15.404 Z-0.7
X116.352 Y15.288 F120
G3 X116.631 Y15.335 I0.116 J0.163
X72.649 Y46.665 I-21.991 J15.665 F240
X116.631 Y15.335 I21.991 J-15.665
X116.584 Y15.614 I-0.163 J0.116 F480
G1 X116.421 Y15.73
X116.379 Y15.76 Z-0.693
X116.339 Y15.788 Z-0.673
X116.306 Y15.812 Z-0.641
X116.28 Y15.83 Z-0.6
X116.264 Y15.842 Z-0.552
X116.258 Y15.846 Z-0.5
X116.026 Y15.52
Z-1.2 F60
X116.031 Y15.516 Z-1.252
X116.048 Y15.505 Z-1.3
X116.074 Y15.486 Z-1.341
X116.107 Y15.462 Z-1.373
X116.147 Y15.434 Z-1.393
X116.189 Y15.404 Z-1.4
X116.352 Y15.288 F120
G3 X116.631 Y15.335 I0.116 J0.163
X72.649 Y46.665 I-21.991 J15.665 F240
X116.631 Y15.335 I21.991 J-15.665
X116.584 Y15.614 I-0.163 J0.116 F480
G1 X116.421 Y15.73
X116.379 Y15.76 Z-1.393
X116.339 Y15.788 Z-1.373
X116.306 Y15.812 Z-1.341
X116.28 Y15.83 Z-1.3
X116.264 Y15.842 Z-1.252
X116.258 Y15.846 Z-1.2
G0 Z5
X52 Y15
G1 Z1.7 F60
Z-0.5
X52.005 Y14.996 Z-0.552
X52.021 Y14.984 Z-0.6
X52.047 Y14.965 Z-0.641
X52.08 Y14.94 Z-0.673
X52.119 Y14.911 Z-0.693
X52.16 Y14.88 Z-0.7
X52.32 Y14.76 F120
G3 X52.6 Y14.8 I0.12 J0.16
X9.4 Y47.2 I-21.6 J16.2 F240
X52.6 Y14.8 I21.6 J-16.2
X52.56 Y15.08 I-0.16 J0.12 F480
G1 X52.4 Y15.2
X52.359 Y15.231 Z-0.693
X52.32 Y15.26 Z-0.673
X52.287 Y15.285 Z-0.641
X52.261 Y15.304 Z-0.6
X52.245 Y15.316 Z-0.552
X52.24 Y15.32 Z-0.5
X52 Y15
Z-1.2 F60
X52.005 Y14.996 Z-1.252
X52.021 Y14.984 Z-1.3
X52.047 Y14.965 Z-1.341
X52.08 Y14.94 Z-1.373
X52.119 Y14.911 Z-1.393
X52.16 Y14.88 Z-1.4
X52.32 Y14.76 F120
G3 X52.6 Y14.8 I0.12 J0.16
X9.4 Y47.2 I-21.6 J16.2 F240
X52.6 Y14.8 I21.6 J-16.2
X52.56 Y15.08 I-0.16 J0.12 F480
G1 X52.4 Y15.2
X52.359 Y15.231 Z-1.393
X52.32 Y15.26 Z-1.373
X52.287 Y15.285 Z-1.341
X52.261 Y15.304 Z-1.3
X52.245 Y15.316 Z-1.252
X52.24 Y15.32 Z-1.2
G0 Z5
X57.4 Y94.447
G1 Z1.7 F60
Z-0.5
X57.407 Z-0.552
X57.427 Z-0.6
X57.459 Z-0.641
X57.5 Z-0.673
X57.549 Z-0.693
X57.6 Z-0.7
X57.8 F120
G3 X58 Y94.647 I0 J0.2
X4 Y94.632 I-27 J-0.008 F240
X58 Y94.647 I27 J0.008
X57.8 Y94.847 I-0.2 J0 F480
G1 X57.6
X57.549 Z-0.693
X57.5 Z-0.673
X57.459 Z-0.641
X57.427 Z-0.6
X57.407 Z-0.552
X57.4 Z-0.5
Y94.447
Z-1.2 F60
X57.407 Z-1.252
X57.427 Z-1.3
X57.459 Z-1.341
X57.5 Z-1.373
X57.549 Z-1.393
X57.6 Z-1.4
X57.8 F120
G3 X58 Y94.647 I0 J0.2
X4 Y94.632 I-27 J-0.008 F240
X58 Y94.647 I27 J0.008
X57.8 Y94.847 I-0.2 J0 F480
G1 X57.6
X57.549 Z-1.393
X57.5 Z-1.373
X57.459 Z-1.341
X57.427 Z-1.3
X57.407 Z-1.252
X57.4 Z-1.2
G0 Z15

M9
M30
