(QUAD)
(T20  D=2 CR=0 - ZMIN=-1.55 - FLAT END MILL)
G90 G94 G91.1 G40 G49 G17
G21

(DRILL1)
M5
M9
T20
(2 FLUTE FISH)
S12000 M3
G54
M8
G0 X49.945 Y63.32
G43 Z15 H1
Z5
G98 G81 X49.945 Y63.32 Z-1.55 R5 F120
X63.32 Y84.07
X76.695 Y63.32
G80
Z15

(2D CONTOUR1)
M8
G0 X72.089 Y62.981
Z15
Z5
G1 Z1.75 F120
Z-0.55
X72.096 Z-0.602
X72.116 Y62.98 Z-0.65
X72.148 Z-0.691
X72.189 Y62.979 Z-0.723
X72.237 Y62.978 Z-0.743
X72.289 Z-0.75
X72.489 Y62.974 F210
G3 X72.692 Y63.171 I0.003 J0.2
G1 X72.695 Y63.32 F420
X72.679 Y64.328
X72.63 Y65.342
X72.55 Y66.356
X72.439 Y67.365
X72.3 Y68.364
X72.172 Y69.135
X72.028 Y69.893
X71.87 Y70.636
X71.698 Y71.36
X71.512 Y72.062
X71.315 Y72.74
X71.107 Y73.39
X70.888 Y74.009
X70.661 Y74.595
X70.426 Y75.148
X70.27 Y75.483
X70.112 Y75.804
X69.951 Y76.105
X69.79 Y76.386
X69.629 Y76.646
X69.451 Y76.91
G3 X57.189 I-6.131 J-4.367
G1 X56.996 Y76.624
X56.821 Y76.338
X56.646 Y76.027
X56.472 Y75.692
X56.3 Y75.337
X56.078 Y74.837
X55.863 Y74.306
X55.655 Y73.744
X55.441 Y73.11
X55.237 Y72.448
X55.045 Y71.76
X54.865 Y71.048
X54.699 Y70.317
X54.508 Y69.356
X54.341 Y68.373
X54.202 Y67.374
X54.091 Y66.363
X54.01 Y65.346
X53.961 Y64.33
X53.945 Y63.32
X53.961 Y62.312
X54.01 Y61.298
X54.09 Y60.283
X54.201 Y59.275
X54.34 Y58.276
X54.468 Y57.505
X54.611 Y56.746
X54.77 Y56.003
X54.942 Y55.28
X55.127 Y54.577
X55.325 Y53.9
X55.533 Y53.25
X55.751 Y52.631
X55.978 Y52.044
X56.214 Y51.492
X56.369 Y51.156
X56.528 Y50.836
X56.688 Y50.535
X56.849 Y50.253
X57.01 Y49.993
X57.189 Y49.73
G3 X69.45 Y49.729 I6.131 J4.367
G1 X69.644 Y50.016
X69.819 Y50.302
X69.994 Y50.613
X70.168 Y50.947
X70.339 Y51.302
X70.561 Y51.803
X70.776 Y52.334
X70.984 Y52.896
X71.198 Y53.529
X71.402 Y54.192
X71.594 Y54.88
X71.774 Y55.592
X71.94 Y56.323
X72.132 Y57.284
X72.298 Y58.266
X72.438 Y59.266
X72.549 Y60.277
X72.63 Y61.293
X72.679 Y62.31
X72.692 Y63.171
G3 X72.496 Y63.374 I-0.2 J0.003 F840
G1 X72.296 Y63.378
X72.244 Z-0.743
X72.196 Y63.379 Z-0.723
X72.154 Y63.38 Z-0.691
X72.122 Z-0.65
X72.102 Y63.381 Z-0.602
X72.096 Z-0.55
X72.089 Y62.981
Z-1.3 F120
X72.096 Z-1.352
X72.116 Y62.98 Z-1.4
X72.148 Z-1.441
X72.189 Y62.979 Z-1.473
X72.237 Y62.978 Z-1.493
X72.289 Z-1.5
X72.489 Y62.974 F210
G3 X72.692 Y63.171 I0.003 J0.2
G1 X72.695 Y63.32 F420
X72.679 Y64.328
X72.63 Y65.342
X72.55 Y66.356
X72.439 Y67.365
X72.3 Y68.364
X72.172 Y69.135
X72.028 Y69.893
X71.87 Y70.636
X71.698 Y71.36
X71.512 Y72.062
X71.315 Y72.74
X71.107 Y73.39
X70.888 Y74.009
X70.661 Y74.595
X70.426 Y75.148
X70.27 Y75.483
X70.112 Y75.804
X69.951 Y76.105
X69.79 Y76.386
X69.629 Y76.646
X69.451 Y76.91
G3 X57.189 I-6.131 J-4.367
G1 X56.996 Y76.624
X56.821 Y76.338
X56.646 Y76.027
X56.472 Y75.692
X56.3 Y75.337
X56.078 Y74.837
X55.863 Y74.306
X55.655 Y73.744
X55.441 Y73.11
X55.237 Y72.448
X55.045 Y71.76
X54.865 Y71.048
X54.699 Y70.317
X54.508 Y69.356
X54.341 Y68.373
X54.202 Y67.374
X54.091 Y66.363
X54.01 Y65.346
X53.961 Y64.33
X53.945 Y63.32
X53.961 Y62.312
X54.01 Y61.298
X54.09 Y60.283
X54.201 Y59.275
X54.34 Y58.276
X54.468 Y57.505
X54.611 Y56.746
X54.77 Y56.003
X54.942 Y55.28
X55.127 Y54.577
X55.325 Y53.9
X55.533 Y53.25
X55.751 Y52.631
X55.978 Y52.044
X56.214 Y51.492
X56.369 Y51.156
X56.528 Y50.836
X56.688 Y50.535
X56.849 Y50.253
X57.01 Y49.993
X57.189 Y49.73
G3 X69.45 Y49.729 I6.131 J4.367
G1 X69.644 Y50.016
X69.819 Y50.302
X69.994 Y50.613
X70.168 Y50.947
X70.339 Y51.302
X70.561 Y51.803
X70.776 Y52.334
X70.984 Y52.896
X71.198 Y53.529
X71.402 Y54.192
X71.594 Y54.88
X71.774 Y55.592
X71.94 Y56.323
X72.132 Y57.284
X72.298 Y58.266
X72.438 Y59.266
X72.549 Y60.277
X72.63 Y61.293
X72.679 Y62.31
X72.692 Y63.171
G3 X72.496 Y63.374 I-0.2 J0.003 F840
G1 X72.296 Y63.378
X72.244 Z-1.493
X72.196 Y63.379 Z-1.473
X72.154 Y63.38 Z-1.441
X72.122 Z-1.4
X72.102 Y63.381 Z-1.352
X72.096 Z-1.3
G0 Z5
X126.966 Y90.951
G1 Z1.75 F120
Z-0.55
X126.959 Y90.952 Z-0.602
X126.939 Y90.954 Z-0.65
X126.908 Y90.959 Z-0.691
X126.867 Y90.964 Z-0.723
X126.819 Y90.971 Z-0.743
X126.768 Y90.978 Z-0.75
X126.569 Y91.005 F210
G3 X126.344 Y90.835 I-0.027 J-0.198
G2 X84.062 Y65.652 I-31.204 J4.305 F420
G3 X82.31 Y60.988 I-0.876 J-2.332
X84.062 I0.876 J2.332
G2 X106.217 Y2.012 I11.078 J-29.488
X64.214 Y37.486 I-11.078 J29.488
G3 X62.426 Y37.832 I-0.894 J0.173
Y37.486 I0.894 J-0.173
G2 X0.574 Y25.513 I-30.926 J-5.986
X42.578 Y60.988 I30.926 J5.986
G3 X44.33 Y65.652 I0.876 J2.332
X42.578 I-0.876 J-2.332
G2 X31.436 Y63.64 I-11.078 J29.488
X7.434 Y115.464 I0.064 J31.5
X62.426 Y89.153 I24.066 J-20.325
G3 X64.214 Y88.807 I0.894 J-0.173
Y89.153 I-0.894 J0.173
G2 X126.065 Y101.126 I30.926 J5.986
X126.344 Y90.835 I-30.926 J-5.986
G3 X126.515 Y90.609 I0.198 J-0.027 F840
G1 X126.713 Y90.582
X126.764 Y90.575 Z-0.743
X126.812 Y90.568 Z-0.723
X126.853 Y90.562 Z-0.691
X126.884 Y90.558 Z-0.65
X126.904 Y90.555 Z-0.602
X126.911 Y90.554 Z-0.55
X126.966 Y90.951
Z-1.3 F120
X126.959 Y90.952 Z-1.352
X126.939 Y90.954 Z-1.4
X126.908 Y90.959 Z-1.441
X126.867 Y90.964 Z-1.473
X126.819 Y90.971 Z-1.493
X126.768 Y90.978 Z-1.5
X126.569 Y91.005 F210
G3 X126.344 Y90.835 I-0.027 J-0.198
G2 X84.062 Y65.652 I-31.204 J4.305 F420
G3 X82.31 Y60.988 I-0.876 J-2.332
X84.062 I0.876 J2.332
G2 X106.217 Y2.012 I11.078 J-29.488
X64.214 Y37.486 I-11.078 J29.488
G3 X62.426 Y37.832 I-0.894 J0.173
Y37.486 I0.894 J-0.173
G2 X0.574 Y25.513 I-30.926 J-5.986
X42.578 Y60.988 I30.926 J5.986
G3 X44.33 Y65.652 I0.876 J2.332
X42.578 I-0.876 J-2.332
G2 X31.436 Y63.64 I-11.078 J29.488
X7.434 Y115.464 I0.064 J31.5
X62.426 Y89.153 I24.066 J-20.325
G3 X64.214 Y88.807 I0.894 J-0.173
Y89.153 I-0.894 J0.173
G2 X126.065 Y101.126 I30.926 J5.986
X126.344 Y90.835 I-30.926 J-5.986
G3 X126.515 Y90.609 I0.198 J-0.027 F840
G1 X126.713 Y90.582
X126.764 Y90.575 Z-1.493
X126.812 Y90.568 Z-1.473
X126.853 Y90.562 Z-1.441
X126.884 Y90.558 Z-1.4
X126.904 Y90.555 Z-1.352
X126.911 Y90.554 Z-1.3
G0 Z5
X116.54 Y78.839
G1 Z1.75 F120
Z-0.55
X116.545 Y78.835 Z-0.602
X116.561 Y78.823 Z-0.65
X116.587 Y78.804 Z-0.691
X116.62 Y78.779 Z-0.723
X116.659 Y78.75 Z-0.743
X116.7 Y78.719 Z-0.75
X116.86 Y78.599 F210
G3 X117.14 Y78.639 I0.12 J0.16
X73.139 Y111.64 I-22 J16.5 F420
X117.14 Y78.639 I22 J-16.5
X117.1 Y78.919 I-0.16 J0.12 F840
G1 X116.94 Y79.039
X116.899 Y79.07 Z-0.743
X116.86 Y79.099 Z-0.723
X116.827 Y79.124 Z-0.691
X116.801 Y79.143 Z-0.65
X116.785 Y79.155 Z-0.602
X116.78 Y79.159 Z-0.55
X116.54 Y78.839
Z-1.3 F120
X116.545 Y78.835 Z-1.352
X116.561 Y78.823 Z-1.4
X116.587 Y78.804 Z-1.441
X116.62 Y78.779 Z-1.473
X116.659 Y78.75 Z-1.493
X116.7 Y78.719 Z-1.5
X116.86 Y78.599 F210
G3 X117.14 Y78.639 I0.12 J0.16
X73.139 Y111.64 I-22 J16.5 F420
X117.14 Y78.639 I22 J-16.5
X117.1 Y78.919 I-0.16 J0.12 F840
G1 X116.94 Y79.039
X116.899 Y79.07 Z-1.493
X116.86 Y79.099 Z-1.473
X116.827 Y79.124 Z-1.441
X116.801 Y79.143 Z-1.4
X116.785 Y79.155 Z-1.352
X116.78 Y79.159 Z-1.3
G0 Z5
X122.04 Y31.311
G1 Z1.75 F120
Z-0.55
X122.046 Z-0.602
X122.066 Z-0.65
X122.098 Z-0.691
X122.14 Z-0.723
X122.188 Z-0.743
X122.24 Y31.312 Z-0.75
X122.44 F210
G3 X122.64 Y31.512 I0 J0.2
X67.64 Y31.488 I-27.5 J-0.012 F420
X122.64 Y31.512 I27.5 J0.012
X122.44 Y31.712 I-0.2 J0 F840
G1 X122.24
X122.188 Y31.711 Z-0.743
X122.14 Z-0.723
X122.098 Z-0.691
X122.066 Z-0.65
X122.046 Z-0.602
X122.04 Z-0.55
Y31.311
Z-1.3 F120
X122.046 Z-1.352
X122.066 Z-1.4
X122.098 Z-1.441
X122.14 Z-1.473
X122.188 Z-1.493
X122.24 Y31.312 Z-1.5
X122.44 F210
G3 X122.64 Y31.512 I0 J0.2
X67.64 Y31.488 I-27.5 J-0.012 F420
X122.64 Y31.512 I27.5 J0.012
X122.44 Y31.712 I-0.2 J0 F840
G1 X122.24
X122.188 Y31.711 Z-1.493
X122.14 Z-1.473
X122.098 Z-1.441
X122.066 Z-1.4
X122.046 Z-1.352
X122.04 Z-1.3
G0 Z5
X52.9 Y15.2
G1 Z1.75 F120
Z-0.55
X52.905 Y15.196 Z-0.602
X52.921 Y15.184 Z-0.65
X52.947 Y15.165 Z-0.691
X52.98 Y15.14 Z-0.723
X53.019 Y15.111 Z-0.743
X53.06 Y15.08 Z-0.75
X53.22 Y14.96 F210
G3 X53.5 Y15 I0.12 J0.16
X9.5 Y48 I-22 J16.5 F420
X53.5 Y15 I22 J-16.5
X53.46 Y15.28 I-0.16 J0.12 F840
G1 X53.3 Y15.4
X53.259 Y15.431 Z-0.743
X53.22 Y15.46 Z-0.723
X53.187 Y15.485 Z-0.691
X53.161 Y15.504 Z-0.65
X53.145 Y15.516 Z-0.602
X53.14 Y15.52 Z-0.55
X52.9 Y15.2
Z-1.3 F120
X52.905 Y15.196 Z-1.352
X52.921 Y15.184 Z-1.4
X52.947 Y15.165 Z-1.441
X52.98 Y15.14 Z-1.473
X53.019 Y15.111 Z-1.493
X53.06 Y15.08 Z-1.5
X53.22 Y14.96 F210
G3 X53.5 Y15 I0.12 J0.16
X9.5 Y48 I-22 J16.5 F420
X53.5 Y15 I22 J-16.5
X53.46 Y15.28 I-0.16 J0.12 F840
G1 X53.3 Y15.4
X53.259 Y15.431 Z-1.493
X53.22 Y15.46 Z-1.473
X53.187 Y15.485 Z-1.441
X53.161 Y15.504 Z-1.4
X53.145 Y15.516 Z-1.352
X53.14 Y15.52 Z-1.3
G0 Z5
X52.9 Y78.839
G1 Z1.75 F120
Z-0.55
X52.906 Y78.835 Z-0.602
X52.922 Y78.823 Z-0.65
X52.947 Y78.804 Z-0.691
X52.98 Y78.779 Z-0.723
X53.019 Y78.75 Z-0.743
X53.06 Y78.719 Z-0.75
X53.22 Y78.599 F210
G3 X53.5 Y78.639 I0.12 J0.16
X9.5 Y111.64 I-22 J16.5 F420
X53.5 Y78.639 I22 J-16.5
X53.46 Y78.919 I-0.16 J0.12 F840
G1 X53.3 Y79.039
X53.259 Y79.07 Z-0.743
X53.22 Y79.099 Z-0.723
X53.187 Y79.124 Z-0.691
X53.162 Y79.143 Z-0.65
X53.146 Y79.155 Z-0.602
X53.14 Y79.159 Z-0.55
X52.9 Y78.839
Z-1.3 F120
X52.906 Y78.835 Z-1.352
X52.922 Y78.823 Z-1.4
X52.947 Y78.804 Z-1.441
X52.98 Y78.779 Z-1.473
X53.019 Y78.75 Z-1.493
X53.06 Y78.719 Z-1.5
X53.22 Y78.599 F210
G3 X53.5 Y78.639 I0.12 J0.16
X9.5 Y111.64 I-22 J16.5 F420
X53.5 Y78.639 I22 J-16.5
X53.46 Y78.919 I-0.16 J0.12 F840
G1 X53.3 Y79.039
X53.259 Y79.07 Z-1.493
X53.22 Y79.099 Z-1.473
X53.187 Y79.124 Z-1.441
X53.162 Y79.143 Z-1.4
X53.146 Y79.155 Z-1.352
X53.14 Y79.159 Z-1.3
G0 Z15

M9
M30
