(1.75MM-MILLING-ASSEMBLY)
(T11  D=2 CR=0 - ZMIN=-2 - FLAT END MILL)
G90 G94 G91.1 G40 G49 G17
G21

(DRILL1)
M5
M9
T11 M6
(DIAMOND OR SPIRAL)
S16000 M3
G54
M8
G0 X53.845 Y40.47
G43 Z15 H1
Z5
G98 G81 X53.845 Y40.47 Z-2 R3.25 F60
X40.47 Y61.22
X27.095 Y40.47
G80
Z15

(2D CONTOUR1)
M8
G0 X37.607 Y52.642
Z15
Z5
G1 Z2 F60
Z-0.8
X37.614 Z-0.852
X37.634 Z-0.9
X37.666 Z-0.941
X37.707 Z-0.973
X37.756 Z-0.993
X37.807 Z-1
X38.007 F120
G3 X38.207 Y52.842 I0 J0.2
G1 Y55.735 F240
X36.386
G2 X35.32 Y56.043 I0 J2
G1 X13.643 Y69.704
G2 X12.731 Y71.688 I1.066 J1.692
G3 X4.569 Y72.891 I-4.081 J0.602
X10.953 Y68.868 I4.081 J-0.602
G2 X13.137 Y68.9 I1.117 J-1.659
G1 X31.186 Y57.525
G2 X32.12 Y55.833 I-1.066 J-1.692
G1 Y42.732
X38.207
Y52.842
G3 X38.007 Y53.042 I-0.2 J0 F480
G1 X37.807
X37.756 Z-0.993
X37.707 Z-0.973
X37.666 Z-0.941
X37.634 Z-0.9
X37.614 Z-0.852
X37.607 Z-0.8
Y52.642
Z-1.8 F60
X37.614 Z-1.852
X37.634 Z-1.9
X37.666 Z-1.941
X37.707 Z-1.973
X37.756 Z-1.993
X37.807 Z-2
X38.007 F120
G3 X38.207 Y52.842 I0 J0.2
G1 Y55.735 F240
X36.386
G2 X35.32 Y56.043 I0 J2
G1 X13.643 Y69.704
G2 X12.731 Y71.688 I1.066 J1.692
G3 X4.569 Y72.891 I-4.081 J0.602
X10.953 Y68.868 I4.081 J-0.602
G2 X13.137 Y68.9 I1.117 J-1.659
G1 X31.186 Y57.525
G2 X32.12 Y55.833 I-1.066 J-1.692
G1 Y42.732
X38.207
Y52.842
G3 X38.007 Y53.042 I-0.2 J0 F480
G1 X37.807
X37.756 Z-1.993
X37.707 Z-1.973
X37.666 Z-1.941
X37.634 Z-1.9
X37.614 Z-1.852
X37.607 Z-1.8
G0 Z5
X48.22 Y52.642
G1 Z2 F60
Z-0.8
X48.227 Z-0.852
X48.247 Z-0.9
X48.278 Z-0.941
X48.32 Z-0.973
X48.368 Z-0.993
X48.42 Z-1
X48.62 F120
G3 X48.82 Y52.842 I0 J0.2
G1 Y55.833 F240
G2 X49.753 Y57.525 I2 J0
G1 X67.803 Y68.901
G2 X69.986 Y68.868 I1.066 J-1.692
G3 X74.593 Y75.711 I2.304 J3.422
X68.209 Y71.688 I-2.304 J-3.422
G2 X67.297 Y69.704 I-1.979 J-0.292
G1 X49.247 Y58.329
X45.62 Y56.043
G2 X44.554 Y55.735 I-1.066 J1.692
G1 X42.732
Y42.732
X48.82
Y52.842
G3 X48.62 Y53.042 I-0.2 J0 F480
G1 X48.42
X48.368 Z-0.993
X48.32 Z-0.973
X48.278 Z-0.941
X48.247 Z-0.9
X48.227 Z-0.852
X48.22 Z-0.8
Y52.642
Z-1.8 F60
X48.227 Z-1.852
X48.247 Z-1.9
X48.278 Z-1.941
X48.32 Z-1.973
X48.368 Z-1.993
X48.42 Z-2
X48.62 F120
G3 X48.82 Y52.842 I0 J0.2
G1 Y55.833 F240
G2 X49.753 Y57.525 I2 J0
G1 X67.803 Y68.901
G2 X69.986 Y68.868 I1.066 J-1.692
G3 X74.593 Y75.711 I2.304 J3.422
X68.209 Y71.688 I-2.304 J-3.422
G2 X67.297 Y69.704 I-1.979 J-0.292
G1 X49.247 Y58.329
X45.62 Y56.043
G2 X44.554 Y55.735 I-1.066 J1.692
G1 X42.732
Y42.732
X48.82
Y52.842
G3 X48.62 Y53.042 I-0.2 J0 F480
G1 X48.42
X48.368 Z-1.993
X48.32 Z-1.973
X48.278 Z-1.941
X48.247 Z-1.9
X48.227 Z-1.852
X48.22 Z-1.8
G0 Z5
X69.906 Y81.23
G1 Z2 F60
Z-0.8
X69.908 Y81.223 Z-0.852
X69.913 Y81.204 Z-0.9
X69.92 Y81.173 Z-0.941
X69.93 Y81.132 Z-0.973
X69.941 Y81.086 Z-0.993
X69.953 Y81.035 Z-1
X70.001 Y80.841 F120
G3 X70.242 Y80.694 I0.194 J0.047
G2 X74.337 Y63.885 I2.047 J-8.404 F240
X68.984 Y64.296 I-2.047 J8.404
G1 X53.345 Y54.44
Y43.934
G2 X57.345 Y40.47 I0.5 J-3.464
X53.345 Y37.006 I-3.5 J0
G1 Y26.5
X68.984 Y16.643
G2 X75.595 Y0.657 I3.306 J-7.993
X63.652 Y8.183 I-3.306 J7.993
G1 X44.554 Y20.22
X36.386
X17.287 Y8.183
G2 X0.013 Y9.117 I-8.637 J0.467
X11.956 Y16.643 I8.637 J-0.467
G1 X27.595 Y26.5
Y37.006
G2 X23.595 Y40.47 I-0.5 J3.464
X27.595 Y43.934 I3.5 J0
G1 Y54.44
X11.956 Y64.296
G2 X5.344 Y80.283 I-3.306 J7.993
X17.287 Y72.756 I3.306 J-7.993
G1 X36.386 Y60.72
X37.006
G2 X40.47 Y64.72 I3.464 J0.5
X43.934 Y60.72 I0 J-3.5
G1 X44.554
X63.652 Y72.756
G2 X70.242 Y80.694 I8.637 J-0.466
G3 X70.389 Y80.936 I-0.047 J0.194 F480
G1 X70.342 Y81.13
X70.33 Y81.18 Z-0.993
X70.318 Y81.227 Z-0.973
X70.309 Y81.267 Z-0.941
X70.301 Y81.298 Z-0.9
X70.296 Y81.318 Z-0.852
X70.295 Y81.324 Z-0.8
X69.906 Y81.23
Z-1.8 F60
X69.908 Y81.223 Z-1.852
X69.913 Y81.204 Z-1.9
X69.92 Y81.173 Z-1.941
X69.93 Y81.132 Z-1.973
X69.941 Y81.086 Z-1.993
X69.953 Y81.035 Z-2
X70.001 Y80.841 F120
G3 X70.242 Y80.694 I0.194 J0.047
G2 X74.337 Y63.885 I2.047 J-8.404 F240
X68.984 Y64.296 I-2.047 J8.404
G1 X53.345 Y54.44
Y43.934
G2 X57.345 Y40.47 I0.5 J-3.464
X53.345 Y37.006 I-3.5 J0
G1 Y26.5
X68.984 Y16.643
G2 X75.595 Y0.657 I3.306 J-7.993
X63.652 Y8.183 I-3.306 J7.993
G1 X44.554 Y20.22
X36.386
X17.287 Y8.183
G2 X0.013 Y9.117 I-8.637 J0.467
X11.956 Y16.643 I8.637 J-0.467
G1 X27.595 Y26.5
Y37.006
G2 X23.595 Y40.47 I-0.5 J3.464
X27.595 Y43.934 I3.5 J0
G1 Y54.44
X11.956 Y64.296
G2 X5.344 Y80.283 I-3.306 J7.993
X17.287 Y72.756 I3.306 J-7.993
G1 X36.386 Y60.72
X37.006
G2 X40.47 Y64.72 I3.464 J0.5
X43.934 Y60.72 I0 J-3.5
G1 X44.554
X63.652 Y72.756
G2 X70.242 Y80.694 I8.637 J-0.466
G3 X70.389 Y80.936 I-0.047 J0.194 F480
G1 X70.342 Y81.13
X70.33 Y81.18 Z-1.993
X70.318 Y81.227 Z-1.973
X70.309 Y81.267 Z-1.941
X70.301 Y81.298 Z-1.9
X70.296 Y81.318 Z-1.852
X70.295 Y81.324 Z-1.8
G0 Z5
X48.22 Y27.898
G1 Z2 F60
Z-0.8
X48.227 Z-0.852
X48.247 Z-0.9
X48.278 Z-0.941
X48.32 Z-0.973
X48.368 Z-0.993
X48.42 Z-1
X48.62 F120
G3 X48.82 Y28.098 I0 J0.2
G1 Y38.207 F240
X42.732
Y25.204
X44.554
G2 X45.62 Y24.896 I0 J-2
G1 X67.296 Y11.235
G2 X68.209 Y9.252 I-1.066 J-1.692
G3 X76.371 Y8.048 I4.081 J-0.602
X69.986 Y12.072 I-4.081 J0.602
G2 X67.803 Y12.039 I-1.117 J1.659
G1 X49.753 Y23.414
G2 X48.82 Y25.106 I1.066 J1.692
G1 Y28.098
G3 X48.62 Y28.298 I-0.2 J0 F480
G1 X48.42
X48.368 Z-0.993
X48.32 Z-0.973
X48.278 Z-0.941
X48.247 Z-0.9
X48.227 Z-0.852
X48.22 Z-0.8
Y27.898
Z-1.8 F60
X48.227 Z-1.852
X48.247 Z-1.9
X48.278 Z-1.941
X48.32 Z-1.973
X48.368 Z-1.993
X48.42 Z-2
X48.62 F120
G3 X48.82 Y28.098 I0 J0.2
G1 Y38.207 F240
X42.732
Y25.204
X44.554
G2 X45.62 Y24.896 I0 J-2
G1 X67.296 Y11.235
G2 X68.209 Y9.252 I-1.066 J-1.692
G3 X76.371 Y8.048 I4.081 J-0.602
X69.986 Y12.072 I-4.081 J0.602
G2 X67.803 Y12.039 I-1.117 J1.659
G1 X49.753 Y23.414
G2 X48.82 Y25.106 I1.066 J1.692
G1 Y28.098
G3 X48.62 Y28.298 I-0.2 J0 F480
G1 X48.42
X48.368 Z-1.993
X48.32 Z-1.973
X48.278 Z-1.941
X48.247 Z-1.9
X48.227 Z-1.852
X48.22 Z-1.8
G0 Z5
X12.102 Y9.528
G1 Z2 F60
Z-0.8
X12.109 Y9.527 Z-0.852
X12.129 Y9.526 Z-0.9
X12.16 Y9.524 Z-0.941
X12.202 Y9.521 Z-0.973
X12.25 Y9.517 Z-0.993
X12.301 Y9.514 Z-1
X12.501 Y9.5 F120
G3 X12.715 Y9.685 I0.014 J0.199
G2 X13.643 Y11.235 I1.995 J-0.142 F240
G1 X35.32 Y24.896
G2 X36.386 Y25.204 I1.066 J-1.692
G1 X38.207
Y38.207
X32.12
Y25.106
G2 X31.186 Y23.414 I-2 J0
G1 X13.137 Y12.039
G2 X10.954 Y12.072 I-1.066 J1.692
G3 X6.346 Y5.228 I-2.304 J-3.422
X12.731 Y9.252 I2.304 J3.422
G2 X12.715 Y9.685 I1.979 J0.292
G3 X12.529 Y9.899 I-0.199 J0.014 F480
G1 X12.33 Y9.913
X12.278 Y9.916 Z-0.993
X12.23 Y9.92 Z-0.973
X12.189 Y9.923 Z-0.941
X12.157 Y9.925 Z-0.9
X12.137 Y9.926 Z-0.852
X12.13 Y9.927 Z-0.8
X12.102 Y9.528
Z-1.8 F60
X12.109 Y9.527 Z-1.852
X12.129 Y9.526 Z-1.9
X12.16 Y9.524 Z-1.941
X12.202 Y9.521 Z-1.973
X12.25 Y9.517 Z-1.993
X12.301 Y9.514 Z-2
X12.501 Y9.5 F120
G3 X12.715 Y9.685 I0.014 J0.199
G2 X13.643 Y11.235 I1.995 J-0.142 F240
G1 X35.32 Y24.896
G2 X36.386 Y25.204 I1.066 J-1.692
G1 X38.207
Y38.207
X32.12
Y25.106
G2 X31.186 Y23.414 I-2 J0
G1 X13.137 Y12.039
G2 X10.954 Y12.072 I-1.066 J1.692
G3 X6.346 Y5.228 I-2.304 J-3.422
X12.731 Y9.252 I2.304 J3.422
G2 X12.715 Y9.685 I1.979 J0.292
G3 X12.529 Y9.899 I-0.199 J0.014 F480
G1 X12.33 Y9.913
X12.278 Y9.916 Z-1.993
X12.23 Y9.92 Z-1.973
X12.189 Y9.923 Z-1.941
X12.157 Y9.925 Z-1.9
X12.137 Y9.926 Z-1.852
X12.13 Y9.927 Z-1.8
G0 Z15

M9
M30
