(QUAD)
(T20  D=2 CR=0 - ZMIN=-1.55 - FLAT END MILL)
G90 G94 G91.1 G40 G49 G17
G21

(DRILL2)
M5
M9
T20
(2 FLUTE FISH)
S12000 M3
G54
M8
G0 X69.071 Y132.64
G43 Z15 H1
Z5
G98 G81 X69.071 Y132.64 Z-1.55 R2 F120
X6 Y194.449
Y70.83
G80
Z15

(2D CONTOUR2)
M8
G0 X4.769 Y56.138
Z15
Z2
G1 Z1.75 F120
Z-0.55
X4.767 Y56.144 Z-0.602
X4.76 Y56.163 Z-0.65
X4.748 Y56.193 Z-0.691
X4.733 Y56.231 Z-0.723
X4.715 Y56.276 Z-0.743
X4.697 Y56.324 Z-0.75
X4.624 Y56.511 F210
G3 X4.364 Y56.624 I-0.186 J-0.073
G2 X4 Y56.555 I-0.364 J0.931 F420
G1 X2
G2 X1 Y57.555 I0 J1
G1 Y207.724
G2 X2 Y208.724 I1 J0
G1 X4
G2 X5 Y207.724 I0 J-1
G1 Y204.824
X7
G2 X11 I2 J0
G1 Y137.64
X85.621
G2 X86.621 Y136.64 I0 J-1
G1 Y135.44
X87.021
G2 X89.021 Y137.44 I2 J0
G1 X90.621
G2 X92.621 Y135.44 I0 J-2
G1 Y129.84
G2 X90.621 Y127.84 I-2 J0
G1 X89.021
G2 X87.021 Y129.84 I0 J2
G1 X86.621
Y128.64
G2 X85.621 Y127.64 I-1 J0
G1 X11
Y60.455
G2 X7 I-2 J0
G1 X5
Y57.555
G2 X4.364 Y56.624 I-1 J0
G3 X4.251 Y56.365 I0.073 J-0.186 F840
G1 X4.324 Y56.179
X4.343 Y56.13 Z-0.743
X4.36 Y56.085 Z-0.723
X4.376 Y56.047 Z-0.691
X4.387 Y56.017 Z-0.65
X4.394 Y55.999 Z-0.602
X4.397 Y55.992 Z-0.55
X4.769 Y56.138
Z-1.3 F120
X4.767 Y56.144 Z-1.352
X4.76 Y56.163 Z-1.4
X4.748 Y56.193 Z-1.441
X4.733 Y56.231 Z-1.473
X4.715 Y56.276 Z-1.493
X4.697 Y56.324 Z-1.5
X4.624 Y56.511 F210
G3 X4.364 Y56.624 I-0.186 J-0.073
G2 X4 Y56.555 I-0.364 J0.931 F420
G1 X2
G2 X1 Y57.555 I0 J1
G1 Y207.724
G2 X2 Y208.724 I1 J0
G1 X4
G2 X5 Y207.724 I0 J-1
G1 Y204.824
X7
G2 X11 I2 J0
G1 Y137.64
X85.621
G2 X86.621 Y136.64 I0 J-1
G1 Y135.44
X87.021
G2 X89.021 Y137.44 I2 J0
G1 X90.621
G2 X92.621 Y135.44 I0 J-2
G1 Y129.84
G2 X90.621 Y127.84 I-2 J0
G1 X89.021
G2 X87.021 Y129.84 I0 J2
G1 X86.621
Y128.64
G2 X85.621 Y127.64 I-1 J0
G1 X11
Y60.455
G2 X7 I-2 J0
G1 X5
Y57.555
G2 X4.364 Y56.624 I-1 J0
G3 X4.251 Y56.365 I0.073 J-0.186 F840
G1 X4.324 Y56.179
X4.343 Y56.13 Z-1.493
X4.36 Y56.085 Z-1.473
X4.376 Y56.047 Z-1.441
X4.387 Y56.017 Z-1.4
X4.394 Y55.999 Z-1.352
X4.397 Y55.992 Z-1.3
G0 Z15

M9
M30
