(QUAD)
(T20  D=2 CR=0 - ZMIN=-1.55 - FLAT END MILL)
G90 G94 G91.1 G40 G49 G17
G21

(DRILL3)
M5
M9
T20
(2 FLUTE FISH)
S12000 M3
G54
M8
G0 X97.516 Y143.609
G43 Z15 H1
Z5
G98 G81 X97.516 Y143.609 Z-1.55 R2 F120
X35.05 Y205.258
X97.516 Y266.907
G80
Z15

(2D CONTOUR3)
M8
G0 X97.416 Y279.982
Z15
Z2
G1 Z1.75 F120
Z-0.55
X97.423 Z-0.602
X97.443 Z-0.65
X97.475 Z-0.691
X97.516 Z-0.723
X97.565 Z-0.743
X97.616 Z-0.75
X97.816 F210
G3 X98.016 Y280.182 I0 J0.2
G2 X99.016 Y281.182 I1 J0 F420
G1 X100.516
G2 X101.516 Y280.182 I0 J-1
G1 Y130.334
G2 X100.516 Y129.334 I-1 J0
G1 X99.016
G2 X98.016 Y130.334 I0 J1
G1 Y133.234
X97.016
Y132.734
G2 X95.516 Y130.798 I-2 J0
X95.016 I-0.25 J0.968
X93.516 Y132.734 I0.5 J1.936
G1 Y201.258
X17.5
G2 X16.541 Y201.975 I0 J1
X14.6 Y200.458 I-1.941 J0.483
G1 X14
G2 X12 Y202.458 I0 J2
G1 Y208.058
G2 X14 Y210.058 I2 J0
G1 X14.6
G2 X16.541 Y208.541 I0 J-2
X17.5 Y209.258 I0.959 J-0.283
G1 X93.516
Y277.782
G2 X95.016 Y279.718 I2 J0
X95.516 I0.25 J-0.968
X97.016 Y277.782 I-0.5 J-1.936
G1 Y277.282
X98.016
Y280.182
G3 X97.816 Y280.382 I-0.2 J0 F840
G1 X97.616
X97.565 Z-0.743
X97.516 Z-0.723
X97.475 Z-0.691
X97.443 Z-0.65
X97.423 Z-0.602
X97.416 Z-0.55
Y279.982
Z-1.3 F120
X97.423 Z-1.352
X97.443 Z-1.4
X97.475 Z-1.441
X97.516 Z-1.473
X97.565 Z-1.493
X97.616 Z-1.5
X97.816 F210
G3 X98.016 Y280.182 I0 J0.2
G2 X99.016 Y281.182 I1 J0 F420
G1 X100.516
G2 X101.516 Y280.182 I0 J-1
G1 Y130.334
G2 X100.516 Y129.334 I-1 J0
G1 X99.016
G2 X98.016 Y130.334 I0 J1
G1 Y133.234
X97.016
Y132.734
G2 X95.516 Y130.798 I-2 J0
X95.016 I-0.25 J0.968
X93.516 Y132.734 I0.5 J1.936
G1 Y201.258
X17.5
G2 X16.541 Y201.975 I0 J1
X14.6 Y200.458 I-1.941 J0.483
G1 X14
G2 X12 Y202.458 I0 J2
G1 Y208.058
G2 X14 Y210.058 I2 J0
G1 X14.6
G2 X16.541 Y208.541 I0 J-2
X17.5 Y209.258 I0.959 J-0.283
G1 X93.516
Y277.782
G2 X95.016 Y279.718 I2 J0
X95.516 I0.25 J-0.968
X97.016 Y277.782 I-0.5 J-1.936
G1 Y277.282
X98.016
Y280.182
G3 X97.816 Y280.382 I-0.2 J0 F840
G1 X97.616
X97.565 Z-1.493
X97.516 Z-1.473
X97.475 Z-1.441
X97.443 Z-1.4
X97.423 Z-1.352
X97.416 Z-1.3
G0 Z15

M9
M30
