(QUAD)
(T20  D=2 CR=0 - ZMIN=-1.55 - FLAT END MILL)
G90 G94 G91.1 G40 G49 G17
G21

(SLOT1)
M5
M9
T20
(2 FLUTE FISH)
S12000 M3
G54
M8
G0 X112.135 Y228.854
G43 Z15 H1
Z5
G1 Z2.5 F120
Z-0.75
Y227.854 F420
Z-1.5 F120
Y228.854 F420
G0 Z15

(DRILL4)
M8
G0 X50.486 Y291
Z15
Z5
G98 G81 X50.486 Y291 Z-1.55 R2 F120
X112.135 Y223.915
X173.784 Y291
G80
Z15

(2D CONTOUR4)
M8
G0 X35.798 Y291.723
Z15
Z2
G1 Z1.75 F120
Z-0.55
X35.804 Y291.726 Z-0.602
X35.823 Y291.733 Z-0.65
X35.852 Y291.745 Z-0.691
X35.891 Y291.76 Z-0.723
X35.936 Y291.778 Z-0.743
X35.984 Y291.797 Z-0.75
X36.17 Y291.871 F210
G3 X36.282 Y292.131 I-0.074 J0.186
G2 X36.211 Y292.5 I0.929 J0.369 F420
G1 Y294
G2 X37.211 Y295 I1 J0
G1 X187.059
G2 X188.059 Y294 I0 J-1
G1 Y292.5
G2 X187.059 Y291.5 I-1 J0
G1 X184.159
Y290.5
X184.659
G2 X186.595 Y289 I0 J-2
Y288.5 I-0.968 J-0.25
X184.659 Y287 I-1.936 J0.5
G1 X116.135
Y206.365
G2 X115.418 Y205.406 I-1 J0
X116.935 Y203.465 I-0.483 J-1.941
G1 Y202.865
G2 X114.935 Y200.865 I-2 J0
G1 X109.335
G2 X107.335 Y202.865 I0 J2
G1 Y203.465
G2 X108.852 Y205.406 I2 J0
X108.135 Y206.365 I0.283 J0.959
G1 Y287
X39.611
G2 X37.675 Y288.5 I0 J2
Y289 I0.968 J0.25
X39.611 Y290.5 I1.936 J-0.5
G1 X40.111
Y291.5
X37.211
G2 X36.282 Y292.131 I0 J1
G3 X36.022 Y292.243 I-0.186 J-0.074 F840
G1 X35.836 Y292.169
X35.788 Y292.15 Z-0.743
X35.743 Y292.132 Z-0.723
X35.705 Y292.117 Z-0.691
X35.675 Y292.105 Z-0.65
X35.657 Y292.097 Z-0.602
X35.65 Y292.095 Z-0.55
X35.798 Y291.723
Z-1.3 F120
X35.804 Y291.726 Z-1.352
X35.823 Y291.733 Z-1.4
X35.852 Y291.745 Z-1.441
X35.891 Y291.76 Z-1.473
X35.936 Y291.778 Z-1.493
X35.984 Y291.797 Z-1.5
X36.17 Y291.871 F210
G3 X36.282 Y292.131 I-0.074 J0.186
G2 X36.211 Y292.5 I0.929 J0.369 F420
G1 Y294
G2 X37.211 Y295 I1 J0
G1 X187.059
G2 X188.059 Y294 I0 J-1
G1 Y292.5
G2 X187.059 Y291.5 I-1 J0
G1 X184.159
Y290.5
X184.659
G2 X186.595 Y289 I0 J-2
Y288.5 I-0.968 J-0.25
X184.659 Y287 I-1.936 J0.5
G1 X116.135
Y206.365
G2 X115.418 Y205.406 I-1 J0
X116.935 Y203.465 I-0.483 J-1.941
G1 Y202.865
G2 X114.935 Y200.865 I-2 J0
G1 X109.335
G2 X107.335 Y202.865 I0 J2
G1 Y203.465
G2 X108.852 Y205.406 I2 J0
X108.135 Y206.365 I0.283 J0.959
G1 Y287
X39.611
G2 X37.675 Y288.5 I0 J2
Y289 I0.968 J0.25
X39.611 Y290.5 I1.936 J-0.5
G1 X40.111
Y291.5
X37.211
G2 X36.282 Y292.131 I0 J1
G3 X36.022 Y292.243 I-0.186 J-0.074 F840
G1 X35.836 Y292.169
X35.788 Y292.15 Z-1.493
X35.743 Y292.132 Z-1.473
X35.705 Y292.117 Z-1.441
X35.675 Y292.105 Z-1.4
X35.657 Y292.097 Z-1.352
X35.65 Y292.095 Z-1.3
G0 Z15

M9
M30
