(QUAD)
(T20  D=2 CR=0 - ZMIN=-1.55 - FLAT END MILL)
G90 G94 G91.1 G40 G49 G17
G21

(DRILL2)
M5
M9
T20
(2 FLUTE FISH)
S12000 M3
G54
M8
G0 X69.071 Y195.253
G43 Z15 H1
Z5
G98 G81 X69.071 Y195.253 Z-1.55 R2 F120
X6 Y257.062
Y133.443
G80
Z15

(2D CONTOUR2)
M8
G0 X4.769 Y118.751
Z15
Z2
G1 Z1.75 F120
Z-0.55
X4.767 Y118.757 Z-0.602
X4.76 Y118.776 Z-0.65
X4.748 Y118.806 Z-0.691
X4.733 Y118.844 Z-0.723
X4.715 Y118.889 Z-0.743
X4.697 Y118.937 Z-0.75
X4.624 Y119.123 F210
G3 X4.364 Y119.237 I-0.186 J-0.073
G2 X4 Y119.168 I-0.364 J0.931 F420
G1 X2
G2 X1 Y120.168 I0 J1
G1 Y270.337
G2 X2 Y271.337 I1 J0
G1 X4
G2 X5 Y270.337 I0 J-1
G1 Y267.437
X7
G2 X11 I2 J0
G1 Y200.253
X85.621
G2 X86.621 Y199.253 I0 J-1
G1 Y198.053
X87.021
G2 X89.021 Y200.053 I2 J0
G1 X90.621
G2 X92.621 Y198.053 I0 J-2
G1 Y192.453
G2 X90.621 Y190.453 I-2 J0
G1 X89.021
G2 X87.021 Y192.453 I0 J2
G1 X86.621
Y191.253
G2 X85.621 Y190.253 I-1 J0
G1 X11
Y123.068
G2 X7 I-2 J0
G1 X5
Y120.168
G2 X4.364 Y119.237 I-1 J0
G3 X4.251 Y118.978 I0.073 J-0.186 F840
G1 X4.324 Y118.791
X4.343 Y118.743 Z-0.743
X4.36 Y118.698 Z-0.723
X4.376 Y118.66 Z-0.691
X4.387 Y118.63 Z-0.65
X4.394 Y118.612 Z-0.602
X4.397 Y118.605 Z-0.55
X4.769 Y118.751
Z-1.3 F120
X4.767 Y118.757 Z-1.352
X4.76 Y118.776 Z-1.4
X4.748 Y118.806 Z-1.441
X4.733 Y118.844 Z-1.473
X4.715 Y118.889 Z-1.493
X4.697 Y118.937 Z-1.5
X4.624 Y119.123 F210
G3 X4.364 Y119.237 I-0.186 J-0.073
G2 X4 Y119.168 I-0.364 J0.931 F420
G1 X2
G2 X1 Y120.168 I0 J1
G1 Y270.337
G2 X2 Y271.337 I1 J0
G1 X4
G2 X5 Y270.337 I0 J-1
G1 Y267.437
X7
G2 X11 I2 J0
G1 Y200.253
X85.621
G2 X86.621 Y199.253 I0 J-1
G1 Y198.053
X87.021
G2 X89.021 Y200.053 I2 J0
G1 X90.621
G2 X92.621 Y198.053 I0 J-2
G1 Y192.453
G2 X90.621 Y190.453 I-2 J0
G1 X89.021
G2 X87.021 Y192.453 I0 J2
G1 X86.621
Y191.253
G2 X85.621 Y190.253 I-1 J0
G1 X11
Y123.068
G2 X7 I-2 J0
G1 X5
Y120.168
G2 X4.364 Y119.237 I-1 J0
G3 X4.251 Y118.978 I0.073 J-0.186 F840
G1 X4.324 Y118.791
X4.343 Y118.743 Z-1.493
X4.36 Y118.698 Z-1.473
X4.376 Y118.66 Z-1.441
X4.387 Y118.63 Z-1.4
X4.394 Y118.612 Z-1.352
X4.397 Y118.605 Z-1.3
G0 Z15

M9
M30
